**kern	**kern
*staff2	*staff1
*clefF4	*clefG2
*k[b-e-a-]	*k[b-e-a-]
*M3/4	*M3/4
*E-:	*E-:
=-	=-
*	*^
8BBB-L	4b-	4r
8BB-J	.	.
8DDL	4.d 4.f	2B-
8BB-J	.	.
8BBB-L	.	.
8BB-J	8f 8a-	.
=288	=288	=288
8EE-L	(8fL 8a-	4B-
8BB-J	8e-J) 8g	.
8GGL	4.e- 4.g	4B-
8BB-J	.	.
8EE-L	.	4r
8BB-J	8bb-	.
=289	=289	=289
8BBB-L	8bb-L	4b-
8BB-J	8ddJ 8ff	.
8DDL	4.dd 4.ff	2b-
8BB-J	.	.
8BBB-L	.	.
8BB-J	8ff 8aa-	.
=290	=290	=290
8EE-L	8ffL 8aa-	4b-
8BB-J	8ee-J 8gg	.
8GGL	4.ee- 4.gg	4b-
8BB-J	.	.
8EE-L	.	4r
8BB-J	8b-	.
=291	=291	=291
4BBB- 4BB-	(8ee-L	4f 4a-
.	8ddJ)	.
4BBB- 4BB-	4dd	4f 4a-
4r	(8ccL	4r
.	8b-J)	.
=292	=292	=292
4AAA- 4AA-	(8ee-L	4f 4b-
.	8ddJ)	.
4AAA- 4AA-	4dd	4f 4b-
4r	4r	4r
*	*v	*v
=293	=293
4G 4e-	(8ee-L
.	8ddJ
4r	8ee-L)
.	8b'J
4A- 4e-	(8ccL
.	8a-J)
=294	=294
4B- 4e-	8gL
.	8b-J
4r	(8e-L
.	8gJ)
4BB- 4F 4A-	8f'L
.	8d'J
=295	=295
4E- 4G	(8e-L
.	8gJ)
4r	8b-'L
.	8ee-'J
4r	8gg'L
.	8bb-'J
=	=
*-	*-
